X:1
T:Title
%%score { ( 1 3 ) | 2 }
L:1/8
M:4/4
K:G
V:1 treble nm="Grand Piano"
V:3 treble 
V:2 bass 
V:1
 z4 z2[Q:1/4=92] [B,D][B,G] | BBBB BGcB |[M:3/4] [EA][EA] [EA][EA] [EA][G,CE] |[M:1/4] [DEB][CEA] | %4
[M:4/4] GGGG GGcB | A6 [B,D][B,G] | BBBB BGcB | [EA][EA][EA][EA] [EA][G,CE][DEB][CEA] | %8
 GGGG GF[FB][FA] |[M:3/4] G6 |[M:1/4] dB |[M:4/4] d4 B2 z2 | B4 z4 | BBBB BdcB | z FGG F2 dB | %15
 d4 B2 z2 | B4 z4 | [^Ge]Bd[Ec] B[GB][FB][FA] |[M:3/4] [DG]6 |] %19
V:2
 z4 z2 [G,,G,][G,,G,] | [G,D][G,D][G,D][G,D] [G,D][G,B,][G,E][G,D] | %2
[M:3/4] [C,C][C,C] [C,C][C,C] [C,C]C, |[M:1/4] C,C, | %4
[M:4/4] [D,B,D][D,B,D][D,B,D][D,B,D] [D,B,D][D,B,D][F,A,D][G,D] | [D,F,D]6 [G,,G,][G,,G,] | %6
 [G,D][G,D][G,D][G,D] [G,D][G,B,][G,E][G,D] | [C,C][C,C][C,C][C,C] [C,C]C,C,C, | %8
 [D,B,D][D,B,D][D,B,D][D,B,D] [D,B,D][D,A,D][D,D][D,C] |[M:3/4][K:treble] [G,B,D]6 | %10
[M:1/4] [G,B,G][G,DG] |[M:4/4] [G,B,G][G,B,][G,B,][G,B,] [G,DG][G,D][G,DG][G,B,D] | %12
 [G,DG][G,D][G,D][G,D] [G,B,D]2 [G,B,D][G,CF] | [G,DG][G,DG][G,DG][G,DG] [G,DG][B,DG][A,DF][G,DG] | %14
 [F,DF][F,D][E,^C][E,C] [D,D]2[K:treble] [G,B,G][G,DG] | %15
 [G,B,G][G,B,][G,B,][G,B,] [G,DG][G,D][G,DG][G,B,D] | %16
 [G,DG][K:bass][G,D][G,D][G,D] [G,B,D]2 [G,D][F,B,] | %17
 [E,B,][E,^G,E][A,E][C,A,] [D,D][D,D][D,D][D,C] |[M:3/4] [G,B,]6 |] %19
V:3
 x8 | x8 |[M:3/4] x6 |[M:1/4] x2 |[M:4/4] x8 | x8 | x8 | x8 | x8 |[M:3/4] x6 |[M:1/4] x2 | %11
[M:4/4] z GGG z GBG | z GGG G2 GA | x8 | A6 z2 | z GGG z GBG | z GGG G2 [Bd][A^d] | x8 | %18
[M:3/4] x6 |] %19

